X:1
T:Benedicite! What dreamed I?
T:Robert Fayrfax (1464-1521)
T:Benedicite! What dreamed I?
T:© Choral Public Domain Library 2010
T:© Choral Public Domain Library 2010
T:© Choral Public Domain Library 2010
T:© Choral Public Domain Library 2010
C:Robert Fayrfax (1464-1521)
Z:© Choral Public Domain Library 2010
%%score [ 1 2 3 ]
L:1/8
M:4/4
K:F
V:1 treble nm="Alto" snm="A."
V:2 treble-8 transpose=-12 nm="Tenor" snm="T."
V:3 bass nm="Bass" snm="B."
V:1
 [G,c]2 |[M:4/2] G12 G4 | G6 G2 G4 G4 | G6 G2 F4 _E4 | D12 D4 | D4 D4 D8 | z4 D4 F2 F2 G4 | %7
w: |Be- ne-|di- ci- te! What|dream- ed I this|night? Me-|thought the world|was turn- ed up-|
 D4 G,4 z4 B4 | A4 G4 F6 _E2 | D6 C2 B,4 A,4 | G,4 z4 (3:2:2D4 E2 (3F3 G A2 | %11
w: so- down: The|sun, the moon had|lost their force and|light; * * * * *|
 (3B3 A G2 (3F2 G2 F2 (3G3 F G2 (3D3 C D2 | A,4 B,2 D4 C2 B,2 C2 | A,8 z4 A,4 | B,4 C4 D4 z4 | %15
w: ||* the|sea al- so|
 F4 G4 B4 A4 | G4 (3F3 E D2 E3 F G2 D2 | _EDCB, CB,A,G, A,8- | A,8 z4 A,4 | A,8 B,8 | D8 C8 | %21
w: drown- ed both tower|and town. _ _ _ _ _ _|_ _ _ _ _ _ _ _ _||||
 =B,8 z4 B,4 | !fermata!=B,16 || z8 G4 E4 | G4 C6 C2 F4 | E4 G8 D4 | D8 z4 G4 | c6 _B2 A4 G4 | %28
w: ||Yet more|mar- vel how that|I heard the|sound of|on- es voice say-|
 F4 _E4 D2 D2 C4 | z2 =B,2 (3E3 D C2 (3:2:2F4 E2 (3D3 C D2 | C2 C2 F2 F2 D2 D2 G4 | %31
w: ing: Bear in thy mind,||* thy la- dy hath for- got-|
 E4 z2 A2 B2 B2 G2 G2 | c4 F4 B4 A4 | G6 FE D8 | z4 G,4 A,4 =B,4 | C4 D4 E4 F4 | G6 FE A6 GF | %37
w: ten, thy la- dy hath for-|got- ten to be|kind. _ _ _||||
 c6 B2 A4 G2 A2 | F3 G A2 D2 G4 AGFE | F4 G4 D4 E4 | F4 G12- | G4 !fermata!E12 |] %42
w: |||||
V:2
 [Cf]2 |[M:4/2] G2 G2 c6 c2 B4 | G4 c8 B4 | _e6 e2 d4 G4 | B8 F4 G4- | G4 F4 B6 B2 | %6
w: |Be- ne- di- ci- te!|What dream- ed|I this night? Me-|thought the world|_ was turn- ed|
 (3A3 B c2 (3B3 A G2 A4 G4- | G4 G4 F4 G4 | D4 z2 c2 (3:2:2d4 d2 (3:2:2A4 A2 | %9
w: up- * so- * * * * down:|_ The sun, the|moon had lost their force and|
 (3B3 A G2 (3F2 G2 F2 (3G2 F2 G2 D4 | z2 d4 c2 B2 AG A4 | G4 D4 E4 F4 | z2 F2 G2 B4 A2 G3 A | F16 | %14
w: light; _ _ _ _ _ _ _ _ _|||||
 z4 A4 B4 c4 | d4 z4 B4 c4 | _e4 d4 c4 B4 | cBAG AGFE F4 z2 c2- | c2 f4 e3 dcB A2 c2- | %19
w: the sea al-|so drown- ed|both tower _ and|town. _ _ _ _ _ _ _ _ _|_ _ _ _ _ _ _ _|
 cBAG F4 z2 G4 d2- | dc B3 A G2 AGFE F4 | G6 FE G4 D4 | !fermata!G16 || =B4 c4 B4 c4 | =B4 e8 d4 | %25
w: ||||Yet more mar- vel|how that I|
 c4 c4 =B8 | z4 G4 c6 B2 | A4 G4 F4 _E4 | D2 D2 C4 z2 G2 (3:2:2A4 F2 | %29
w: heard the sound|of on- es|voice say- ing: Bear|in thy mind, * * *|
 (3B3 A G2 (3c4 BA (3:2:2d4 c2 (3B2 c2 B2 | c4 z2 A2 B2 B2 G2 G2 | c4 F4 G4 E4 | A8 G4 c4- | %33
w: |* thy la- dy hath for-|got- ten to be|kind. _ _|
 c2 =B2 c4 B8- | B8 z4 d4 | e4 =B6 c2 d4 | G4 c6 =BA d4 | c4 f6 ed e2 f2 | d4 c2 B6 A4- | %39
w: _ _ _ _||||||
 A4 G6 A=B c4 | d4 (3:2:2e4 f2 (3e2 d2 c2 (3:2:2=B4 c2 | (3=B2 A2 G2 !fermata!c12 |] %42
w: |||
V:3
 [F,,B,]2 |[M:4/2] z8 C,2 C,2 G,4- | G,2 G,2 C,4 C,4 _E,4- | E,2 _E,2 E,4 B,,4 C,4 | %4
w: |Be- ne- di-|* ci- te! What dream-|* ed I this _|
 G,,4 G,,4 B,,8 | G,,4 B,,8 B,,4 | F,2 F,2 G,4 D,4 G,,4 | z4 B,4 A,4 G,4 | F,4 _E,4 D,6 C,2 | %9
w: night? Me- thought|the world was|turn- ed up- so- down:|The sun, the|moon had lost their|
 B,,4 A,,4 G,,4 (3F,3 G, A,2 | (3B,3 A, G,2 (3F,3 G, F,2 (3G,2 F,2 G,2 D,4 | %11
w: force and light; _ _ _|_ _ _ _ _ _ _ _ _ _|
 G,,4 z4 C,4 B,,2 D,2- | D,C,B,,A,, G,,4 z4 G,,4 | D,6 C,B,, A,,4 D,4 | G,,4 z4 G,4 A,4 | %15
w: |||* the sea|
 D,4 E,4 G,4 F,4 | z4 B,,4 C,2 C,2 G,,4 | z4 G,,4 D,4 F,4 | C,2 D,4 A,,3 B,, C,2 F,,2 A,,2- | %19
w: al- so drown- ed|both tower and town.|||
 A,,2 D,3 C,B,,A,, G,,8 | B,,8 A,,8 | G,,16 | z4 G,,4 !fermata!G,,8 || G,4 E,4 G,4 C,4 | %24
w: ||||Yet more mar- vel|
 G,,4 A,,4 C,4 B,,2 B,,2 | C,2 D,2 E,2 F,2 G,4 z2 G,2 | B,6 A,G, A,4 E,4 | %27
w: how that I heard the|sound _ _ _ _ of|on- es _ _ voice|
 F,4 G,4 z2 D,2 _E,2 D,C, | D,2 B,,2 C,2 C,2 G,,4 z2 F,2 | G,F,E,D, C,4 B,,4 z2 G,,2 | %30
w: _ _ say- ing: _ _|_ Bear in thy mind, *||
 (3A,,3 B,, C,2 (3D,3 C, D,2 B,,2 B,,2 _E,2 E,2 | C,2 C,2 D,4 G,,4 C,4 | A,,4 D,4 z2 E,2 F,4 | %33
w: * * * * * * * thy la- dy|hath for- got- ten to|be kind. * *|
 C,3 D, E,2 F,2 G,6 D,2 | G,6 F,E, F,4 G,4 | C,4 G,6 F,E, D,4 | E,2 C,6 F,6 G,2 | A,6 F,6 C,4 | %38
w: |||||
 D,4 A,,2 B,,2 G,,2 B,,2 C,2 D,2- | D,C, D,2 G,,4 (3:2:2G,4 F,2 (3:2:2E,4 F,2 | %40
w: ||
 (3D,3 C, D,2 C,3 D, E,2 F,2 G,3 A, | G,4 !fermata!C,12 |] %42
w: ||

